X:41
T: Cuisle mo chro, S. 63
N: I0540
O: Irland
S: O'SULLIVAN, Donal: Song of the Irish]
R: Liebeslied]
M: 6/8
L: 1/16
K: Eb
E2 | E2E2F2G4B2 | F4E2E4
B2 | e2e2e2d4B2 | c4B2B4
(3Bcd | e2e2e2d2B2c2 | _d2B2A2G2F2
E2 | G2A2G2F2E2F2 | E4F2G4
e2 | e2B2A2G2A2G2 | F4E2E4

@@@ Tune index: 7316
